X: 1
T: Ballyoran
M: 2/4
L: 1/8
R: polka
K: Gmaj
|:B/A/ | GD/G/ BG/B/ | dB/d/ gB | dc cA | ed B/c/B/A/ |
GD/G/ BG/B/ | dB/d/ gB | dc cF | AG G :|
|:B | dc cA | ed BG/B/ | dc cA | ed B/c/B/A/ |
GD/G/ BG/B/ | dB/d/ gB | dc cF | AG G :|
|:B/C/ | dg gf/e/ | dB BA/B/ | ce ed/c/ | BG G/A/B/c/ |
dg gf/e/ | dB BA/B/ | ce ed | G2 G :|
|:B/A/ | GD/G/ Bd | cA A/B/A/G/ | FD/F/ Ac | BG G/c/B/A/ |
GD/G/ Bd | cA AG | Fe ed | G2 G :|
